release/img/mobile_white.svg

<svg width="49" height="81" viewBox="0 0 49 81" fill="none" xmlns="http://www.w3.org/2000/svg">
<path d="M39.2692 0.989746H9.73077C4.63538 0.989746 0.5 5.06247 0.5 10.0807V71.8988C0.5 76.917 4.63538 80.9897 9.73077 80.9897H39.2692C44.3646 80.9897 48.5 76.917 48.5 71.8988V10.0807C48.5 5.06247 44.3646 0.989746 39.2692 0.989746ZM24.5 77.3534C21.4354 77.3534 18.9615 74.917 18.9615 71.8988C18.9615 68.8807 21.4354 66.4443 24.5 66.4443C27.5646 66.4443 30.0385 68.8807 30.0385 71.8988C30.0385 74.917 27.5646 77.3534 24.5 77.3534ZM41.1154 62.8079H7.88462V11.8988H41.1154V62.8079Z" fill="white"/>
</svg>

<svg width="49" height="81" fill="none" xmlns="http://www.w3.org/2000/svg"><path d="M39.27.99H9.73C4.636.99.5 5.062.5 10.08V71.9c0 5.018 4.135 9.09 9.23 9.09h29.54c5.095 0 9.23-4.072 9.23-9.09V10.08c0-5.018-4.135-9.09-9.23-9.09zM24.5 77.353c-3.065 0-5.538-2.436-5.538-5.454s2.473-5.455 5.538-5.455c3.065 0 5.538 2.437 5.538 5.455 0 3.018-2.473 5.454-5.538 5.454zm16.615-14.545H7.885v-50.91h33.23v50.91z" fill="#fff"/></svg>
